X: 20558
T: John Murray Of Lochee
R: reel
M: 4/4
K: Dmajor
|:DB,|A,DDC ~D3B,|A,DDC D/E/FED|B,EED ~E3F|GFED CEDB,|
A,DDC ~D3B,|A,DDC D/E/FED|G2FE F/G/AFD|CEAG FD:|
|:DE|F2FE FDDE|F/E/DAD FDDF|G2GF GFED|CEAF GFED|
F2FE FDDE|F/E/DAD FDDF|G2FE F/G/AFD|CEAG FD:|
"Up an Octave"
|:dB|Addc ~d3B|Addc d/e/fed|Beed ~e3f|gfed cedB|
Addc ~d3B|Addc d/e/fed|g2fe f/g/afd|ceag fd:|
|:de|f2fe fdde|f/e/dad fddf|g2gf gfed|ceaf gfed|
f2fe fdde|f/e/dad fddf|g2fe f/g/afd|ceag fd:|

